; generated by PrusaSlicer 2.7.4+win64 on 2024-05-05 at 17:47:20 UTC


;
;
; 

; external perimeters extrusion width = 0.45mm
; perimeters extrusion width = 0.45mm
; infill extrusion width = 0.45mm
; solid infill extrusion width = 0.45mm
; top infill extrusion width = 0.40mm
; first layer extrusion width = 0.42mm

; external perimeters extrusion width = 0.45mm
; perimeters extrusion width = 0.45mm
; infill extrusion width = 0.45mm
; solid infill extrusion width = 0.45mm
; top infill extrusion width = 0.40mm
; first layer extrusion width = 0.42mm

M73 P0 R46
M73 Q0 S46
M201 X1000 Y1000 Z200 E5000 ; sets maximum accelerations, mm/sec^2
M203 X200 Y200 Z12 E120 ; sets maximum feedrates, mm / sec
M204 S1250 T1250 ; sets acceleration (S) and retract acceleration (R), mm/sec^2
M205 X8.00 Y8.00 Z0.40 E4.50 ; sets the jerk limits, mm/sec
M205 S0 T0 ; sets the minimum extruding and travel feed rate, mm/sec

; printing object BarrelPin.stl id:2 copy 0
; stop printing object BarrelPin.stl id:2 copy 0
; printing object BarrelMount.stl id:1 copy 0
; stop printing object BarrelMount.stl id:1 copy 0

;TYPE:Custom
M862.3 P "MK3" ; printer model check
M862.1 P0.4 ; nozzle diameter check
M115 U3.13.3 ; tell printer latest fw version
G90 ; use absolute coordinates
M83 ; extruder relative mode
M104 S215 ; set extruder temp
M140 S60 ; set bed temp
M190 S60 ; wait for bed temp
M109 S215 ; wait for extruder temp
G28 W ; home all without mesh bed level
G80 X94.0018 Y65.9556 W53.078 H48.0891 ; mesh bed levelling

G1 Z0.2 F720
G1 Y-3 F1000 ; go outside print area
G92 E0
G1 X60 E9 F1000 ; intro line
G1 X100 E12.5 F1000 ; intro line

G92 E0
M221 S95

; Don't change E values below. Excessive value can damage the printer.

M907 E538 ; set extruder motor current
G21 ; set units to millimeters
G90 ; use absolute coordinates
M83 ; use relative distances for extrusion

M900 K0.05 ; Filament gcode LA 1.5
M900 K30 ; Filament gcode LA 1.0




M107
;LAYER_CHANGE
;Z:0.2
;HEIGHT:0.2
G1 E-.8 F2100
G1 Z.6 F720
G1 X94.582 Y72.005 F10800
G1 Z.2 F720
G1 E.8 F2100
M204 S800
;TYPE:Skirt/Brim
;WIDTH:0.42
G1 F1200
G1 X95.275 Y71.317 E.03062
G1 X99.344 Y68.682 E.152
G1 X99.898 Y68.403 E.01945
G1 X104.428 Y66.805 E.15061
G1 X104.958 Y66.684 E.01705
G1 X109.739 Y66.155 E.15082
G1 X144.63 Y67.826 E1.09524
G1 X145.916 Y68.28 E.04276
G1 X146.741 Y69.368 E.04281
G1 X146.891 Y70.2 E.02651
G1 X146.891 Y109.8 E1.24163
G1 X146.5 Y111.107 E.04277
G1 X145.454 Y111.983 E.04278
G1 X144.63 Y112.174 E.02652
G1 X109.739 Y113.845 E1.09524
G1 X104.95 Y113.315 E.15107
G1 X104.432 Y113.197 E.01666
G1 X99.898 Y111.597 E.15075
G1 X99.356 Y111.326 E.019
G1 X95.281 Y108.701 E.15198
G1 X94.395 Y107.663 E.04279
G1 X94.192 Y106.709 E.03058
G1 X94.19 Y73.312 E1.04714
G1 X94.565 Y72.062 E.04092
M204 S1000
;WIPE_START
G1 F8640
G1 X94.582 Y72.005 E-.01373
G1 X95.275 Y71.317 E-.22548
G1 X97.313 Y69.997 E-.56079
;WIPE_END
G1 Z.6 F720
; printing object BarrelPin.stl id:2 copy 0
G1 X143.727 Y109.013 F10800
G1 Z.2 F720
G1 E.8 F2100
M204 S800
;TYPE:Perimeter
;WIDTH:0.419999
G1 F1200
G1 X136.273 Y109.013 E.23371
G1 X136.273 Y70.987 E1.19228
G1 X143.727 Y70.987 E.23371
G1 X143.727 Y74.714 E.11686
G1 X143.727 Y108.953 E1.07354
M204 S1000
G1 X143.727 Y108.953 F10800
G1 X144.104 Y109.39
M204 S800
;TYPE:External perimeter
G1 F1200
G1 X135.896 Y109.39 E.25736
G1 X135.896 Y70.61 E1.21592
G1 X144.104 Y70.61 E.25736
G1 X144.104 Y74.714 E.12868
G1 X144.104 Y109.33 E1.08536
M204 S1000
;WIPE_START
G1 F8640
G1 X144.104 Y109.39 E-.01385
G1 X140.699 Y109.39 E-.78615
;WIPE_END
G1 Z.6 F720
G1 X143.557 Y71.92 F10800
G1 Z.2 F720
G1 E.8 F2100
M204 S800
;TYPE:Solid infill
;WIDTH:0.420689
G1 F1200
G1 X142.963 Y71.326 E.02639
G1 X142.429 Y71.326 E.01677
G1 X143.388 Y72.285 E.0426
G1 X143.388 Y72.819 E.01677
G1 X141.895 Y71.326 E.06632
G1 X141.361 Y71.326 E.01677
G1 X143.388 Y73.354 E.09007
G1 X143.388 Y73.888 E.01677
G1 X140.826 Y71.326 E.11381
G1 X140.292 Y71.326 E.01677
M73 Q1 S46
G1 X143.388 Y74.422 E.13753
G1 X143.388 Y74.956 E.01677
M73 P1 R46
G1 X139.758 Y71.326 E.16125
G1 X139.224 Y71.326 E.01677
G1 X143.388 Y75.491 E.185
G1 X143.388 Y76.025 E.01677
G1 X138.689 Y71.326 E.20874
G1 X138.155 Y71.326 E.01677
G1 X143.388 Y76.559 E.23246
G1 X143.388 Y77.093 E.01677
G1 X137.621 Y71.326 E.25619
G1 X137.087 Y71.326 E.01677
G1 X143.388 Y77.628 E.27993
G1 X143.388 Y78.162 E.01677
G1 X136.612 Y71.386 E.30101
G1 X136.612 Y71.921 E.01681
G1 X143.388 Y78.696 E.30099
G1 X143.388 Y79.23 E.01677
G1 X136.612 Y72.455 E.30099
G1 X136.612 Y72.989 E.01677
G1 X143.388 Y79.764 E.30099
G1 X143.388 Y80.299 E.01681
G1 X136.612 Y73.523 E.30101
G1 X136.612 Y74.058 E.01681
G1 X143.388 Y80.833 E.30099
G1 X143.388 Y81.367 E.01677
G1 X136.612 Y74.592 E.30099
G1 X136.612 Y75.126 E.01677
G1 X143.388 Y81.901 E.30099
G1 X143.388 Y82.436 E.01681
G1 X136.612 Y75.66 E.30101
G1 X136.612 Y76.195 E.01681
G1 X143.388 Y82.97 E.30099
G1 X143.388 Y83.504 E.01677
G1 X136.612 Y76.729 E.30099
G1 X136.612 Y77.263 E.01677
G1 X143.388 Y84.038 E.30099
G1 X143.388 Y84.573 E.01681
G1 X136.612 Y77.797 E.30101
G1 X136.612 Y78.332 E.01681
G1 X143.388 Y85.107 E.30099
G1 X143.388 Y85.641 E.01677
G1 X136.612 Y78.866 E.30099
G1 X136.612 Y79.4 E.01677
G1 X143.388 Y86.175 E.30099
G1 X143.388 Y86.71 E.01681
G1 X136.612 Y79.934 E.30101
G1 X136.612 Y80.468 E.01677
G1 X143.388 Y87.244 E.30101
G1 X143.388 Y87.778 E.01677
G1 X136.612 Y81.003 E.30099
G1 X136.612 Y81.537 E.01677
G1 X143.388 Y88.312 E.30099
G1 X143.388 Y88.847 E.01681
G1 X136.612 Y82.071 E.30101
G1 X136.612 Y82.605 E.01677
G1 X143.388 Y89.381 E.30101
G1 X143.388 Y89.915 E.01677
G1 X136.612 Y83.14 E.30099
G1 X136.612 Y83.674 E.01677
G1 X143.388 Y90.449 E.30099
G1 X143.388 Y90.984 E.01681
G1 X136.612 Y84.208 E.30101
G1 X136.612 Y84.742 E.01677
G1 X143.388 Y91.518 E.30101
G1 X143.388 Y92.052 E.01677
G1 X136.612 Y85.277 E.30099
G1 X136.612 Y85.811 E.01677
G1 X143.388 Y92.586 E.30099
G1 X143.388 Y93.121 E.01681
G1 X136.612 Y86.345 E.30101
G1 X136.612 Y86.879 E.01677
G1 X143.388 Y93.655 E.30101
G1 X143.388 Y94.189 E.01677
M73 P1 R45
G1 X136.612 Y87.414 E.30099
G1 X136.612 Y87.948 E.01677
G1 X143.388 Y94.723 E.30099
G1 X143.388 Y95.258 E.01681
G1 X136.612 Y88.482 E.30101
G1 X136.612 Y89.016 E.01677
G1 X143.388 Y95.792 E.30101
G1 X143.388 Y96.326 E.01677
G1 X136.612 Y89.551 E.30099
G1 X136.612 Y90.085 E.01677
G1 X143.388 Y96.86 E.30099
G1 X143.388 Y97.395 E.01681
G1 X136.612 Y90.619 E.30101
G1 X136.612 Y91.153 E.01677
G1 X143.388 Y97.929 E.30101
G1 X143.388 Y98.463 E.01677
G1 X136.612 Y91.688 E.30099
G1 X136.612 Y92.222 E.01677
G1 X143.388 Y98.997 E.30099
G1 X143.388 Y99.532 E.01681
G1 X136.612 Y92.756 E.30101
G1 X136.612 Y93.29 E.01677
G1 X143.388 Y100.066 E.30101
G1 X143.388 Y100.6 E.01677
G1 X136.612 Y93.825 E.30099
G1 X136.612 Y94.359 E.01677
G1 X143.388 Y101.134 E.30099
G1 X143.388 Y101.669 E.01681
G1 X136.612 Y94.893 E.30101
G1 X136.612 Y95.427 E.01677
G1 X143.388 Y102.203 E.30101
G1 X143.388 Y102.737 E.01677
G1 X136.612 Y95.962 E.30099
G1 X136.612 Y96.496 E.01677
G1 X143.388 Y103.271 E.30099
G1 X143.388 Y103.806 E.01681
G1 X136.612 Y97.03 E.30101
G1 X136.612 Y97.564 E.01677
M73 Q2 S46
G1 X143.388 Y104.34 E.30101
G1 X143.388 Y104.874 E.01677
M73 P2 R45
G1 X136.612 Y98.099 E.30099
G1 X136.612 Y98.633 E.01677
G1 X143.388 Y105.408 E.30099
G1 X143.388 Y105.943 E.01681
G1 X136.612 Y99.167 E.30101
G1 X136.612 Y99.701 E.01677
G1 X143.388 Y106.477 E.30101
G1 X143.388 Y107.011 E.01677
G1 X136.612 Y100.236 E.30099
G1 X136.612 Y100.77 E.01677
M73 Q2 S45
G1 X143.388 Y107.545 E.30099
G1 X143.388 Y108.08 E.01681
G1 X136.612 Y101.304 E.30101
G1 X136.612 Y101.838 E.01677
G1 X143.388 Y108.614 E.30101
G1 X143.388 Y108.674 E.00188
G1 X142.913 Y108.674 E.01492
G1 X136.612 Y102.373 E.27991
G1 X136.612 Y102.907 E.01677
G1 X142.379 Y108.674 E.25619
G1 X141.845 Y108.674 E.01677
G1 X136.612 Y103.441 E.23246
G1 X136.612 Y103.975 E.01677
G1 X141.311 Y108.674 E.20874
G1 X140.776 Y108.674 E.01681
G1 X136.612 Y104.51 E.18498
G1 X136.612 Y105.044 E.01677
G1 X140.242 Y108.674 E.16125
G1 X139.708 Y108.674 E.01677
G1 X136.612 Y105.578 E.13753
G1 X136.612 Y106.112 E.01677
G1 X139.174 Y108.674 E.11381
G1 X138.639 Y108.674 E.01681
G1 X136.612 Y106.647 E.09004
G1 X136.612 Y107.181 E.01677
G1 X138.105 Y108.674 E.06632
G1 X137.571 Y108.674 E.01677
G1 X136.612 Y107.715 E.0426
G1 X136.612 Y108.249 E.01677
G1 X137.206 Y108.843 E.02639
M204 S1000
;WIPE_START
G1 F8640
G1 X136.612 Y108.249 E-.19397
G1 X136.612 Y107.715 E-.1233
G1 X137.571 Y108.674 E-.31316
G1 X138.105 Y108.674 E-.1233
G1 X137.963 Y108.532 E-.04627
;WIPE_END
G1 Z.6 F720
; stop printing object BarrelPin.stl id:2 copy 0
; printing object BarrelMount.stl id:1 copy 0
G1 X122.645 Y73.739 F10800
G1 Z.2 F720
G1 E.8 F2100
M204 S800
;TYPE:Perimeter
;WIDTH:0.419999
G1 F1200
G1 X122.645 Y77.325 E.11244
G1 X122.645 Y106.273 E.90764
G1 X118.976 Y108.643 E.13695
G1 X114.605 Y110.181 E.14529
G1 X110 Y110.69 E.14527
G1 X105.395 Y110.181 E.14527
G1 X101.036 Y108.643 E.14493
G1 X97.355 Y106.272 E.13729
G1 X97.355 Y73.74 E1.02002
G1 X101.037 Y71.357 E.13752
G1 X105.395 Y69.819 E.1449
G1 X110 Y69.311 E.14526
G1 X114.605 Y69.814 E.14525
G1 X118.976 Y71.352 E.14529
G1 X122.595 Y73.706 E.13536
M204 S1000
G1 X122.595 Y73.706 F10800
G1 X123.023 Y73.534
M204 S800
;TYPE:External perimeter
G1 F1200
G1 X123.023 Y77.325 E.11886
G1 X123.023 Y106.478 E.91407
G1 X119.143 Y108.984 E.14482
G1 X114.689 Y110.551 E.14804
G1 X110 Y111.069 E.14791
G1 X105.311 Y110.551 E.14791
G1 X100.869 Y108.984 E.14769
G1 X96.977 Y106.478 E.14514
G1 X96.977 Y73.535 E1.0329
G1 X100.869 Y71.016 E.14536
G1 X105.31 Y69.449 E.14766
G1 X110 Y68.931 E.14795
G1 X114.689 Y69.444 E.1479
G1 X119.143 Y71.011 E.14804
G1 X122.972 Y73.501 E.14321
M204 S1000
;WIPE_START
G1 F8640
G1 X123.023 Y73.534 E-.01403
G1 X123.023 Y76.938 E-.78597
;WIPE_END
G1 Z.6 F720
G1 X105.226 Y84.196 F10800
G1 Z.2 F720
G1 E.8 F2100
M204 S800
;TYPE:Perimeter
G1 F1200
G1 X105.326 Y84.155 E.00339
G1 X114.812 Y84.153 E.29743
G1 X115.095 Y84.229 E.00919
G1 X115.29 Y84.417 E.00849
G1 X115.367 Y84.611 E.00654
G1 X115.377 Y84.719 E.0034
G1 X115.377 Y94.99 E.32204
G1 X115.335 Y95.204 E.00684
G1 X115.156 Y95.438 E.00924
G1 X114.944 Y95.54 E.00738
G1 X114.812 Y95.555 E.00417
G1 X105.373 Y95.555 E.29595
G1 X105.091 Y95.48 E.00915
G1 X104.895 Y95.291 E.00854
G1 X104.816 Y95.088 E.00683
G1 X104.808 Y94.99 E.00308
G1 X104.808 Y84.719 E.32204
G1 X104.846 Y84.513 E.00657
G1 X105.012 Y84.283 E.00889
G1 X105.171 Y84.218 E.00539
M204 S1000
G1 X105.171 Y84.218 F10800
G1 X105.373 Y84.531
M204 S800
;TYPE:External perimeter
G1 F1200
G1 X114.812 Y84.53 E.29595
G1 X114.952 Y84.592 E.0048
G1 X115 Y84.719 E.00426
G1 X115 Y94.99 E.32204
G1 X114.95 Y95.118 E.00431
G1 X114.812 Y95.178 E.00472
G1 X105.373 Y95.178 E.29595
G1 X105.233 Y95.116 E.0048
G1 X105.185 Y94.99 E.00423
G1 X105.185 Y84.719 E.32204
G1 X105.253 Y84.573 E.00505
G1 X105.317 Y84.547 E.00217
M204 S1000
;WIPE_START
G1 F8640
G1 X105.373 Y84.531 E-.01345
G1 X108.779 Y84.531 E-.78655
;WIPE_END
G1 Z.6 F720
G1 X120.259 Y72.389 F10800
G1 Z.2 F720
G1 E.8 F2100
M204 S800
;TYPE:Solid infill
;WIDTH:0.421973
G1 F1200
G1 X122.306 Y74.436 E.09124
G1 X122.306 Y74.972 E.01689
G1 X119.305 Y71.971 E.13377
G1 X118.825 Y71.659 E.01804
G1 X118.257 Y71.459 E.01898
G1 X122.306 Y75.508 E.18048
G1 X122.306 Y76.044 E.01689
G1 X117.43 Y71.168 E.21734
G1 X116.603 Y70.877 E.02763
G1 X122.306 Y76.58 E.2542
G1 X122.306 Y77.116 E.01689
G1 X115.776 Y70.586 E.29107
G1 X114.949 Y70.295 E.02763
M73 P3 R45
M73 Q3 S45
G1 X122.306 Y77.653 E.32795
G1 X122.306 Y78.189 E.01689
G1 X114.233 Y70.115 E.35987
G1 X113.631 Y70.049 E.01909
G1 X122.306 Y78.725 E.3867
G1 X122.306 Y79.261 E.01689
G1 X113.029 Y69.983 E.41353
G1 X112.427 Y69.918 E.01908
G1 X122.306 Y79.797 E.44034
G1 X122.306 Y80.333 E.01689
G1 X111.825 Y69.852 E.46718
G1 X111.223 Y69.786 E.01909
G1 X122.306 Y80.869 E.49401
G1 X122.306 Y81.405 E.01689
G1 X110.621 Y69.72 E.52084
G1 X110.019 Y69.654 E.01909
G1 X122.306 Y81.941 E.54768
G1 X122.306 Y82.477 E.01689
G1 X109.533 Y69.704 E.56934
G1 X109.05 Y69.757 E.01531
G1 X122.306 Y83.013 E.59087
G1 X122.306 Y83.549 E.01689
G1 X108.567 Y69.81 E.6124
G1 X108.084 Y69.864 E.01532
G1 X122.306 Y84.085 E.63391
G1 X122.306 Y84.621 E.01689
G1 X107.602 Y69.917 E.65541
G1 X107.119 Y69.97 E.01531
G1 X122.306 Y85.157 E.67694
G1 X122.306 Y85.693 E.01689
G1 X106.636 Y70.024 E.69845
G1 X106.153 Y70.077 E.01531
G1 X122.306 Y86.229 E.71998
G1 X122.306 Y86.766 E.01693
G1 X105.671 Y70.13 E.74151
G1 X105.471 Y70.152 E.00634
G1 X105.239 Y70.234 E.00776
G1 X122.306 Y87.302 E.76076
G1 X122.306 Y87.838 E.01689
G1 X104.842 Y70.374 E.77844
G1 X104.446 Y70.514 E.01324
G1 X122.306 Y88.374 E.79609
G1 X122.306 Y88.91 E.01689
G1 X104.05 Y70.654 E.81374
G1 X103.654 Y70.793 E.01323
M73 P3 R44
G1 X122.306 Y89.446 E.83141
G1 X122.306 Y89.982 E.01689
G1 X103.257 Y70.933 E.84908
G1 X102.861 Y71.073 E.01324
G1 X122.306 Y90.518 E.86674
G1 X122.306 Y91.054 E.01689
G1 X102.465 Y71.213 E.88439
G1 X102.069 Y71.353 E.01324
G1 X114.537 Y83.821 E.55575
G1 X114 Y83.82 E.01693
M73 P4 R44
M73 Q4 S45
G1 X101.672 Y71.492 E.5495
G1 X101.276 Y71.632 E.01324
G1 X113.463 Y83.819 E.54322
G1 X112.926 Y83.818 E.01693
G1 X100.935 Y71.827 E.53448
G1 X100.609 Y72.038 E.01224
G1 X112.389 Y83.817 E.52506
G1 X111.852 Y83.816 E.01693
G1 X100.284 Y72.248 E.51563
G1 X99.958 Y72.459 E.01224
G1 X111.315 Y83.816 E.50622
G1 X110.778 Y83.815 E.01693
G1 X99.633 Y72.669 E.4968
G1 X99.308 Y72.88 E.01221
G1 X110.241 Y83.814 E.48735
G1 X109.705 Y83.814 E.01689
M73 Q4 S44
G1 X98.982 Y73.091 E.47796
G1 X98.657 Y73.301 E.0122
G1 X109.169 Y83.814 E.46858
G1 X108.634 Y83.814 E.01686
G1 X98.331 Y73.512 E.45922
G1 X98.006 Y73.723 E.01221
G1 X108.098 Y83.815 E.44984
G1 X107.562 Y83.815 E.01689
G1 X97.694 Y73.947 E.43985
G1 X97.694 Y74.483 E.01689
G1 X107.026 Y83.815 E.41596
G1 X106.491 Y83.816 E.01686
G1 X97.694 Y75.019 E.39212
G1 X97.694 Y75.555 E.01689
G1 X105.955 Y83.816 E.36822
G1 X105.419 Y83.816 E.01689
G1 X97.694 Y76.091 E.34433
G1 X97.694 Y76.627 E.01689
G1 X104.976 Y83.909 E.32459
G1 X104.793 Y84.022 E.00678
G1 X104.681 Y84.151 E.00538
G1 X97.694 Y77.163 E.31146
G1 X97.694 Y77.699 E.01689
G1 X104.497 Y84.502 E.30324
G1 X104.468 Y84.711 E.00665
G1 X104.468 Y85.01 E.00942
G1 X97.694 Y78.235 E.30196
G1 X97.694 Y78.771 E.01689
G1 X104.468 Y85.546 E.30196
G1 X104.468 Y86.082 E.01689
G1 X97.694 Y79.307 E.30196
G1 X97.694 Y79.843 E.01689
G1 X104.468 Y86.618 E.30196
G1 X104.468 Y87.154 E.01689
G1 X97.694 Y80.379 E.30196
G1 X97.694 Y80.916 E.01693
G1 X104.468 Y87.69 E.30194
G1 X104.468 Y88.226 E.01689
G1 X97.694 Y81.452 E.30194
G1 X97.694 Y81.988 E.01689
G1 X104.468 Y88.762 E.30194
G1 X104.468 Y89.298 E.01689
G1 X97.694 Y82.524 E.30194
G1 X97.694 Y83.06 E.01689
G1 X104.468 Y89.834 E.30194
G1 X104.468 Y90.37 E.01689
G1 X97.694 Y83.596 E.30194
G1 X97.694 Y84.132 E.01689
G1 X104.468 Y90.906 E.30194
G1 X104.468 Y91.442 E.01689
G1 X97.694 Y84.668 E.30194
G1 X97.694 Y85.204 E.01689
G1 X104.468 Y91.978 E.30194
G1 X104.468 Y92.514 E.01689
G1 X97.694 Y85.74 E.30194
G1 X97.694 Y86.276 E.01689
G1 X104.468 Y93.051 E.30196
G1 X104.468 Y93.587 E.01689
G1 X97.694 Y86.812 E.30196
G1 X97.694 Y87.348 E.01689
G1 X104.468 Y94.123 E.30196
G1 X104.468 Y94.659 E.01689
G1 X97.524 Y87.715 E.30952
M204 S1000
;WIPE_START
G1 F8640
G1 X99.974 Y90.165 E-.8
;WIPE_END
G1 Z.6 F720
G1 X115.547 Y84.831 F10800
G1 Z.2 F720
G1 E.8 F2100
M204 S800
G1 F1200
G1 X122.306 Y91.59 E.30127
G1 X122.306 Y92.126 E.01689
G1 X115.717 Y85.537 E.2937
G1 X115.717 Y86.073 E.01689
G1 X122.306 Y92.662 E.2937
G1 X122.306 Y93.198 E.01689
G1 X115.717 Y86.609 E.2937
G1 X115.717 Y87.145 E.01689
G1 X122.306 Y93.734 E.2937
G1 X122.306 Y94.27 E.01689
G1 X115.717 Y87.681 E.2937
G1 X115.717 Y88.217 E.01689
M73 P5 R44
M73 Q5 S44
G1 X122.306 Y94.806 E.2937
G1 X122.306 Y95.343 E.01693
G1 X115.717 Y88.753 E.29372
G1 X115.717 Y89.289 E.01689
G1 X122.306 Y95.879 E.29372
G1 X122.306 Y96.415 E.01689
G1 X115.717 Y89.825 E.29372
G1 X115.717 Y90.361 E.01689
G1 X122.306 Y96.951 E.29372
G1 X122.306 Y97.487 E.01689
G1 X115.717 Y90.897 E.29372
